Newaita-dark/.DP/16/teamviewer-indicator-busy.svg

<svg xmlns="http://www.w3.org/2000/svg" xmlns:xlink="http://www.w3.org/1999/xlink" width="16px" height="16px" viewBox="0 0 16 16" version="1.1">
<g id="surface1">
<path style=" stroke:none;fill-rule:nonzero;fill:rgb(93.333334%,93.333334%,93.333334%);fill-opacity:1;" d="M 7.9375 2.109375 C 4.640625 2.109375 1.984375 4.765625 1.984375 8.0625 C 1.984375 11.363281 4.640625 14.015625 7.9375 14.015625 C 9.226562 14.015625 10.414062 13.613281 11.386719 12.921875 L 10.871094 12.40625 C 10.5625 12.109375 10.503906 11.667969 10.644531 11.328125 C 10.78125 10.984375 11.128906 10.710938 11.558594 10.710938 C 11.828125 10.710938 12.082031 10.816406 12.269531 11.007812 L 12.785156 11.527344 C 13.484375 10.550781 13.890625 9.359375 13.890625 8.0625 C 13.890625 4.765625 11.238281 2.109375 7.9375 2.109375 Z M 9.585938 5.746094 C 9.761719 5.746094 9.933594 5.816406 10.058594 5.945312 L 11.710938 7.597656 C 11.96875 7.855469 11.96875 8.273438 11.710938 8.527344 L 10.058594 10.183594 C 9.890625 10.351562 9.648438 10.421875 9.417969 10.359375 C 9.1875 10.300781 9.007812 10.121094 8.949219 9.890625 C 8.890625 9.660156 8.957031 9.417969 9.125 9.25 L 9.660156 8.71875 C 9.636719 8.722656 9.613281 8.722656 9.59375 8.722656 L 6.21875 8.722656 L 6.75 9.25 C 6.921875 9.417969 6.988281 9.660156 6.925781 9.890625 C 6.867188 10.121094 6.6875 10.300781 6.457031 10.359375 C 6.230469 10.421875 5.984375 10.351562 5.820312 10.183594 L 4.164062 8.527344 C 3.90625 8.273438 3.90625 7.855469 4.164062 7.597656 L 5.820312 5.945312 C 5.9375 5.820312 6.101562 5.75 6.273438 5.746094 C 6.542969 5.738281 6.792969 5.894531 6.898438 6.144531 C 7.003906 6.394531 6.945312 6.6875 6.75 6.875 L 6.21875 7.40625 L 9.59375 7.40625 C 9.613281 7.40625 9.636719 7.40625 9.660156 7.40625 L 9.125 6.875 C 8.933594 6.6875 8.875 6.402344 8.976562 6.15625 C 9.074219 5.90625 9.316406 5.746094 9.585938 5.746094 Z M 10.257812 8.003906 C 10.261719 8.042969 10.261719 8.082031 10.257812 8.121094 L 10.316406 8.0625 Z M 11.558594 11.371094 C 11.398438 11.371094 11.304688 11.457031 11.253906 11.574219 C 11.207031 11.695312 11.214844 11.820312 11.332031 11.933594 C 11.332031 11.933594 11.332031 11.9375 11.335938 11.9375 L 11.90625 12.507812 C 12.070312 12.363281 12.226562 12.207031 12.371094 12.046875 L 11.796875 11.472656 C 11.796875 11.472656 11.796875 11.472656 11.792969 11.46875 C 11.734375 11.40625 11.648438 11.371094 11.558594 11.371094 Z M 11.558594 11.371094 "/>
<path style=" stroke:none;fill-rule:nonzero;fill:rgb(93.333334%,93.333334%,93.333334%);fill-opacity:1;" d="M 11.558594 11.039062 C 11.292969 11.039062 11.050781 11.203125 10.949219 11.449219 C 10.847656 11.699219 10.910156 11.984375 11.101562 12.171875 L 13.4375 14.507812 C 13.605469 14.679688 13.847656 14.746094 14.078125 14.6875 C 14.308594 14.628906 14.488281 14.449219 14.550781 14.21875 C 14.609375 13.988281 14.542969 13.742188 14.371094 13.578125 L 12.03125 11.238281 C 11.90625 11.113281 11.738281 11.039062 11.558594 11.039062 Z M 11.558594 11.039062 "/>
<path style=" stroke:none;fill-rule:nonzero;fill:rgb(93.333334%,93.333334%,93.333334%);fill-opacity:1;" d="M 13.890625 11.039062 C 13.722656 11.046875 13.558594 11.117188 13.4375 11.238281 L 11.101562 13.578125 C 10.929688 13.742188 10.859375 13.988281 10.921875 14.21875 C 10.980469 14.449219 11.160156 14.628906 11.390625 14.6875 C 11.621094 14.75 11.867188 14.679688 12.03125 14.507812 L 14.371094 12.171875 C 14.566406 11.980469 14.625 11.691406 14.519531 11.441406 C 14.410156 11.191406 14.164062 11.03125 13.890625 11.039062 Z M 13.890625 11.039062 "/>
</g>
</svg>

<svg xmlns="http://www.w3.org/2000/svg" width="16pt" height="16pt" viewBox="0 0 16 16"><g fill="#bdbdbd"><path d="M7.938 2.11a5.942 5.942 0 0 0-5.954 5.953 5.94 5.94 0 0 0 5.954 5.953c1.289 0 2.476-.403 3.449-1.094l-.516-.516a.987.987 0 1 1 .688-1.695.99.99 0 0 1 .71.297l.516.52a5.916 5.916 0 0 0 1.106-3.466A5.94 5.94 0 0 0 7.937 2.11zm1.648 3.636a.66.66 0 0 1 .473.2l1.652 1.652a.655.655 0 0 1 0 .93l-1.652 1.656a.66.66 0 1 1-.934-.934l.535-.531c-.023.004-.047.004-.066.004H6.219l.531.527c.172.168.238.41.176.64a.648.648 0 0 1-.469.47.654.654 0 0 1-.637-.176L4.164 8.527a.655.655 0 0 1 0-.93L5.82 5.946a.64.64 0 0 1 .453-.199.657.657 0 0 1 .477 1.129l-.531.531H9.66l-.535-.531a.657.657 0 0 1-.148-.719.65.65 0 0 1 .609-.41zm.672 2.258a.587.587 0 0 1 0 .117l.058-.059zm1.3 3.367a.312.312 0 0 0-.304.203.308.308 0 0 0 .082.364l.57.57c.164-.145.32-.301.465-.461l-.574-.574-.004-.004a.321.321 0 0 0-.234-.098zm0 0"/><path d="M11.559 11.04a.664.664 0 0 0-.61.41.663.663 0 0 0 .153.722l2.335 2.336a.663.663 0 0 0 1.114-.29.66.66 0 0 0-.18-.64l-2.34-2.34a.668.668 0 0 0-.472-.199zm0 0"/><path d="M13.89 11.04a.69.69 0 0 0-.453.198l-2.335 2.34a.651.651 0 0 0-.18.64c.058.231.238.41.469.47a.651.651 0 0 0 .64-.18l2.34-2.336a.662.662 0 0 0 .149-.73.665.665 0 0 0-.63-.403zm0 0"/></g></svg>
